X: 4
T: 8th of August
C: Michael Dabney
%R: reel
B: Michael Dabney "Twelve Minuets and Twelve Dances" p.8 #2
S: http://imslp.org/wiki/12_Minuets_and_12_Dances_(Dabney,_Michael)
Z: 2015 John Chambers <jc:trillian.mit.edu>
M: C|
L: 1/8
K: A
% - - - - - - - - - - - - - - - - - - - - - - - - - - - - -
% Voice 1 produces mostly 4- or 8-bar staffs.
V: 1
|:\
cecA dfdB | cecA BGFE |\
cdec fgab | geB^d e4 ::\
efec dBTB2 | dedB cAA2 |
ABcd eafd | cBAG A4 ::\
AEAE (CA,)A,2 | B,CDE (CA,)A,2 |\
AEAE CEAc | dBAG A2A,2 :|
% - - - - - - - - - - - - - - - - - - - - - - - - - - - - -
% Voice 2 preserves the staff breaks in the book.
V: 2 clef=bass middle=d
|:\
a4 d2z2 | a4 e2z2 | a4 f4 | b2B2 e4 :: a4 b4 | e4 a4 | A4 c2d2 |
e2e2 A4 :: A4 A2z2 | e2e2 A2z2 | a4 A4 | d2e2 A4 :|
% - - - - - - - - - - Dance description - - - - - - - - - -
%%begintext align
%% The 1st Man cast of & turn
%% the 3d Wo: _ 1st Wo: do the
%% same _ lead thro the bottom
%% and cast up _ lead thro the
%% top & cast off _ hands 4 round
%% lead thro the top Cu: cast off
%%endtext

%%sep 1 1 500
%%sep 1 1 500
